public/assets/img/home1/icon/contact-whtsapp-icon.svg

<svg width="28" height="28" viewBox="0 0 28 28" fill="none" xmlns="http://www.w3.org/2000/svg">
<mask id="mask0_1535_25278" style="mask-type:alpha" maskUnits="userSpaceOnUse" x="0" y="0" width="28" height="28">
<rect width="28" height="28" fill="#D9D9D9"/>
</mask>
<g mask="url(#mask0_1535_25278)">
</g>
<g clip-path="url(#clip0_1535_25278)">
<path d="M14.0002 0C6.2687 0 0.000198364 6.2685 0.000198364 14C0.000198364 17.066 0.987199 19.9045 2.6637 22.211L0.738698 27.272L6.2932 25.69C8.5017 27.1495 11.1512 28 14.0002 28C21.7317 28 28.0002 21.7315 28.0002 14C28.0002 6.2685 21.7317 0 14.0002 0ZM21.4412 19.7995L19.9502 21.2905C18.3822 22.8585 14.2242 21.133 10.5387 17.4475C6.8497 13.7585 5.2012 9.6005 6.6922 8.0325L8.1832 6.5415C8.7327 5.992 9.6742 5.992 10.3007 6.5415L12.4987 8.7395C13.2827 9.5235 12.9677 10.857 11.9492 11.1685C11.2422 11.4065 10.7732 12.1905 11.0077 12.8975C11.3997 14.5425 13.5172 16.583 15.0887 16.975C15.7922 17.1325 16.5797 16.7405 16.8142 16.0335C17.1257 15.015 18.4627 14.7 19.2467 15.484L21.4412 17.682C21.9907 18.2315 21.9907 19.173 21.4412 19.7995Z" fill="#4CAF50"/>
</g>
<defs>
<clipPath id="clip0_1535_25278">
<rect width="28" height="28" fill="white"/>
</clipPath>
</defs>
</svg>

<svg xmlns="http://www.w3.org/2000/svg" width="28" height="28" fill="none" viewBox="0 0 28 28">
    <mask id="a" width="28" height="28" x="0" y="0" maskUnits="userSpaceOnUse" style="mask-type:alpha">
        <path fill="#d9d9d9" d="M0 0h28v28H0z"/>
    </mask>
    <g clip-path="url(#b)">
        <path fill="#4caf50" d="M14 0C6.27 0 0 6.269 0 14c0 3.066.987 5.904 2.664 8.211L.739 27.272l5.554-1.582A13.93 13.93 0 0 0 14 28c7.732 0 14-6.268 14-14 0-7.731-6.268-14-14-14m7.441 19.8-1.49 1.49c-1.569 1.569-5.727-.157-9.412-3.842C6.849 13.758 5.2 9.6 6.692 8.033l1.491-1.491c.55-.55 1.491-.55 2.118 0l2.198 2.198c.784.784.469 2.117-.55 2.428-.707.239-1.176 1.023-.941 1.73.392 1.645 2.51 3.685 4.08 4.077.704.157 1.492-.235 1.726-.942.312-1.018 1.649-1.333 2.433-.549l2.194 2.198c.55.55.55 1.491 0 2.117"/>
    </g>
    <defs>
        <clipPath id="b">
            <path fill="#fff" d="M0 0h28v28H0z"/>
        </clipPath>
    </defs>
</svg>
